Sources/FrostedUI/Resources/Icons.xcassets/link32.imageset/link-32.svg

<svg width="32" height="32" viewBox="0 0 32 32" fill="none" xmlns="http://www.w3.org/2000/svg" data-fui-icon="true">
  <path
    d="M8.75098 13.4385C9.04387 13.1456 9.51863 13.1456 9.81152 13.4385C10.1044 13.7314 10.1044 14.2061 9.81152 14.499L6.09277 18.2178C5.07318 19.2374 4.50008 20.6206 4.5 22.0625C4.5 25.0654 6.93463 27.5 9.9375 27.5C11.3794 27.4999 12.7626 26.9268 13.7822 25.9072L17.501 22.1885C17.7939 21.8956 18.2686 21.8956 18.5615 22.1885C18.8544 22.4814 18.8544 22.9561 18.5615 23.249L14.8428 26.9678C13.5419 28.2687 11.7772 28.9999 9.9375 29C6.1062 29 3 25.8938 3 22.0625C3.00008 20.2228 3.73133 18.4581 5.03223 17.1572L8.75098 13.4385ZM20.7197 10.2197C21.0126 9.92683 21.4874 9.92683 21.7803 10.2197C22.0732 10.5126 22.0732 10.9874 21.7803 11.2803L11.2803 21.7803C10.9874 22.0732 10.5126 22.0732 10.2197 21.7803C9.92683 21.4874 9.92683 21.0126 10.2197 20.7197L20.7197 10.2197ZM22.0625 3C25.8938 3 29 6.1062 29 9.9375C28.9999 11.7772 28.2687 13.5419 26.9678 14.8428L23.249 18.5615C22.9561 18.8544 22.4814 18.8544 22.1885 18.5615C21.8956 18.2686 21.8956 17.7939 22.1885 17.501L25.9072 13.7822C26.9268 12.7626 27.4999 11.3794 27.5 9.9375C27.5 6.93463 25.0654 4.5 22.0625 4.5C20.6206 4.50008 19.2374 5.07318 18.2178 6.09277L14.499 9.81152C14.2061 10.1044 13.7314 10.1044 13.4385 9.81152C13.1456 9.51863 13.1456 9.04387 13.4385 8.75098L17.1572 5.03223C18.4581 3.73133 20.2228 3.00008 22.0625 3Z"
    fill="currentColor"
  />
</svg>

<svg xmlns="http://www.w3.org/2000/svg" width="32" height="32" fill="none" data-fui-icon="true" viewBox="0 0 32 32"><path fill="currentColor" d="M8.751 13.439a.75.75 0 1 1 1.06 1.06l-3.718 3.719a5.438 5.438 0 0 0 7.69 7.69l3.718-3.72a.75.75 0 1 1 1.06 1.061l-3.718 3.719a6.938 6.938 0 1 1-9.81-9.81zm11.969-3.22a.75.75 0 0 1 1.06 1.061l-10.5 10.5a.75.75 0 1 1-1.06-1.06zM22.063 3a6.938 6.938 0 0 1 4.905 11.843l-3.719 3.718a.75.75 0 1 1-1.06-1.06l3.718-3.719a5.438 5.438 0 0 0-7.69-7.69L14.5 9.813a.75.75 0 1 1-1.06-1.061l3.718-3.719A6.94 6.94 0 0 1 22.063 3"/></svg>
